X:194
T: BLINDE KUH SOLL DIRS GELINGEN
N: K2511
O: Europa, Mitteleuropa, Deutschland
R: Kinder - Lied, Such - Spiel
M: 4/4
L: 1/4
K: G
 | GGGB | GGDD |
GGGB | GGDD |
FDG2 | FDG2 |
FFGG | AFG2

